X:1
T:Title
%%score { ( 1 3 ) | ( 2 4 ) }
L:1/8
Q:1/4=108
M:4/2
K:C
V:1 treble nm="Grand Piano"
V:3 treble 
V:2 bass 
V:4 bass 
V:1
 [CEG]4 [A,EA]2 [A,EA]2 [DFA]4 [DG]2 [DF]2 | z2 G2 c2 d2 c4 B2 G2 | e4 d2 c2 c4 B2 A2 | %3
w: Samule~Sebastian~Wesley * * * * *|||
 G4 A2 F2 E6 E2 | D4 A2 G2 G4 ^F2 A2 | [^Fc]4 [FB]2 [FA]2 [FA]4 [EG]2 [EG]2 | %6
w: |||
 [Gd]4 [Gc]2 [GB]2 [Ge]4 G2 [EA]2 | B4 c2 A2 G8 | E4 C3 E [G,DG]4 [G,DG]2 [G,DG]2 | %9
w: |||
 .[CF]4 [CFc]2 [CFc]2 [CEc]6 .[CE]2 | [A,CD]4 [B,DA]3 [B,DA] .[CA]4 [A,CF]2[K:bass] [A,CD]2 | %11
w: ||
[M:12/4] [E,C]4 [F,B,D]2- [F,B,D]C[K:treble] C4- C4 z2 z6 |[M:8/4] F8 E8 |] %13
w: ||
V:2
 C,4 C,2 C,2 B,,4 B,,2 B,,2 | [C,G,]4 [E,G,C]2 [E,G,C]2 [F,G,D]4 [F,G,D]2 [F,G,B,]2 | %2
 [E,G,C]4 [E,^G,C]2 [E,G,C]2 [F,A,D]4 [^F,CD]2 [F,CD]2 | %3
 [G,CE]4 [G,B,F]2[K:bass] [G,B,D]2 [C,C]6 [G,C]2 | %4
 [^F,A,C]4 [F,CD]2 [G,CD]2 [A,CD]4 [A,CD]2 [F,CD]2 | %5
 [D,A,]4 [_E,B,]2 [E,B,]2 [=E,B,]4 [E,B,]2 [E,B,]2 | %6
 [F,B,]4 [E,C]2 [D,G,]2 [^C,A,]4 [C,A,]2 [C,G,]2 | [D,G,D]4 [D,A,D]2 [D,^F,C]2 [G,B,]8 | %8
 [C,G,C]4 [C,E,]3 [C,G,C] B,,4 B,,2 B,,2 | z2 A2 A,,2 A,,2 G,,6 z C | ^F,4 =F,3 F, z2 G2 F,2 F,,2 | %11
[M:12/4] G,,4 G,,2- G,,[G,,E,] [C,E,]4- [C,E,]4 z2 z6 |[M:8/4] [F,A,C]8 [C,G,C]8 |] %13
V:3
 x16 | E4 z4 z8 | x16 | x16 | x16 | x16 | x16 | x16 | x16 | x16 | x14[K:bass] x2 | %11
[M:12/4] x8[K:treble] x16 |[M:8/4] x16 |] %13
V:4
 x16 | x16 | x16 | x6[K:bass] x10 | x16 | x16 | x16 | x16 | x16 | A,,4 z4 z4 z2 G,2 | z8 E,4 z4 | %11
[M:12/4] x24 |[M:8/4] x16 |] %13

